X: 5757
T: Cahir's Kitchen
R: reel
M: 4/4
K: Aminor
e|"Am"A2ce A2ce|"G"d2Bd "Em"GABG|"Am"A2ce A2cd|"E7"e3d edcB|
"Am"A2ce A2ce|"G"d2Bd "Em"gdBG|"Fmaj7"(3ABc Bd cedf|"E7"edBc "Am"A4||
d|"Am"eAce Ac e2|"G"d2 "Em"Bd GABG|"Am"eaec ABcA|"E7"ecfd gefd|
"Am"e3c Ac e2|d2"G"Bd "Em"gdBG|"Fmaj7"(3ABc Bd cedf|"E7"edBc "Am"A3b||
"Am"aec'b "Amb7"aeba|"Am7"gdba "Am6"gdc'b|"Fmaj7"aec'b ae e2|"E7"edcB cA A2|
"Am"aec'b "Amb5"aeba|"Am7"gd d2 "Am6"Bdg2|"Fmaj7"(3ABc Bd cedf|"E7"edBc "Am"A3b||
"Am"aec'b "Amb5"aeba|"Am7"gdba "Am6"gdc'b|"Fmaj7"aec'b a3b|"E7"c'3d' "Am"e'd'c'b|
"Am"aec'b "Amb5"aeba|"Am7"gd d2 "Am6"Bdg2|"Fmaj7"(3ABc Bd cedf|"E7"edBc "D9"A4||

